X: 11
T:Movrin 1
M:6/8
L:1/8
S:Orchestrina
C:trad
A:Tirol, sterreich
Z:Stephan Steiner
K:D
A |d2Ad2f|a3 a>gf|e3 g>fe|d>ef A2 A|d2A d2f |a3 a>gf|e3 g>fe|1 (d3 d2) :
|2 d3 |: a>fg|a>d'c' b>c'd'|a2f A>df|a3 a>gf | e3 a>fg|a>d'c' b>c'd'|a2f
 A>df|a2a g>fe|1 d3 :|2 (d3 d2) ||
